X:147
T:Reel 147
M:4/4
K:Gmaj
L:1/8
dc|BAGA Bcdg|BcdB A2dc|BAGg deBc|BcAB A2dc|BAGc BcdB|cABG A2df|gfge fgaf|bgaf gedc|BcBA G2BG|AGFG ABcA|BcBA G2BG|DGFG A2dc|BcBA G2BG|AGBG D2cA|BdBG GFGB|AGAB c2|Bc|dBeB c2ec|BcBc A2B2|BcBG G2BG|AFDE F2G2|BcBA G2BG|AGFG AcBA|GBAG FGAc|BGAF G2|
